X: 8
T: Bó Mhín Na Toitean
Z: alangley
S: https://thesession.org/tunes/5252#setting27629
R: strathspey
M: 4/4
L: 1/8
K: Ador
A2 e2 e2 dB|d2 ef ge a2|A2 e2 e2 dB|de dB GA BG|
A2 e2 e2 dB|d2 ef ge a2|ge de g2 ed|B2 A2 A2 z2:|
a2 a2 a2 ge|d2 ef ge a2|a2 a2 a2 ge|dg ed BA GB|
a2 a2 a2 ge|d2 ef ge a2|ge de g2 ed|B2 A2 A2 z2:|
